chains/radixstokenet/logo.svg

<svg xmlns="http://www.w3.org/2000/svg" width="400" height="400" fill="none" viewBox="0 0 400 400"><path fill="#052CC0" d="M0 0h400v400H0z"/><g filter="url(#a)"><path fill="#00C389" d="M170.912 306.613c-4.15 0-8.095-1.983-10.569-5.397l-51.655-71.586H75v-26.063h40.352c4.19 0 8.115 2.003 10.568 5.397l42.212 58.483 64.411-147.138a13.05 13.05 0 0 1 11.938-7.809H325v26.063h-71.995L182.85 298.804a13.01 13.01 0 0 1-10.569 7.727 10 10 0 0 1-1.369.082"/></g><defs><filter id="a" width="314" height="258.113" x="43" y="112.5" color-interpolation-filters="sRGB" filterUnits="userSpaceOnUse"><feFlood flood-opacity="0" result="BackgroundImageFix"/><feColorMatrix in="SourceAlpha" result="hardAlpha" values="0 0 0 0 0 0 0 0 0 0 0 0 0 0 0 0 0 0 127 0"/><feOffset dy="32"/><feGaussianBlur stdDeviation="16"/><feComposite in2="hardAlpha" operator="out"/><feColorMatrix values="0 0 0 0 0 0 0 0 0 0 0 0 0 0 0 0 0 0 0.25 0"/><feBlend in2="BackgroundImageFix" result="effect1_dropShadow_961_90"/><feBlend in="SourceGraphic" in2="effect1_dropShadow_961_90" result="shape"/></filter></defs></svg>

<svg width="400" height="400" viewBox="0 0 400 400" fill="none" xmlns="http://www.w3.org/2000/svg">
<rect width="400" height="400" fill="#052CC0"/>
<g filter="url(#filter0_d_961_90)">
<path d="M170.912 306.613C166.762 306.613 162.817 304.63 160.343 301.216L108.688 229.63H75V203.567H115.352C119.542 203.567 123.467 205.57 125.92 208.964L168.132 267.447L232.543 120.309C234.628 115.566 239.309 112.5 244.481 112.5H325V138.563H253.005L182.85 298.804C180.969 303.097 176.942 306.04 172.281 306.531C171.852 306.592 171.382 306.613 170.912 306.613Z" fill="#00C389"/>
</g>
<defs>
<filter id="filter0_d_961_90" x="43" y="112.5" width="314" height="258.113" filterUnits="userSpaceOnUse" color-interpolation-filters="sRGB">
<feFlood flood-opacity="0" result="BackgroundImageFix"/>
<feColorMatrix in="SourceAlpha" type="matrix" values="0 0 0 0 0 0 0 0 0 0 0 0 0 0 0 0 0 0 127 0" result="hardAlpha"/>
<feOffset dy="32"/>
<feGaussianBlur stdDeviation="16"/>
<feComposite in2="hardAlpha" operator="out"/>
<feColorMatrix type="matrix" values="0 0 0 0 0 0 0 0 0 0 0 0 0 0 0 0 0 0 0.25 0"/>
<feBlend mode="normal" in2="BackgroundImageFix" result="effect1_dropShadow_961_90"/>
<feBlend mode="normal" in="SourceGraphic" in2="effect1_dropShadow_961_90" result="shape"/>
</filter>
</defs>
</svg>
